openmetadata-ui/src/main/resources/ui/src/assets/svg/Task-ic.svg

<svg width="14" height="14" viewBox="0 0 14 14" fill="none" xmlns="http://www.w3.org/2000/svg">
<path d="M11.2778 2.16615H9.95472V1.57424C9.95472 1.38273 9.74582 1.29569 9.55432 1.29569H8.52718C8.28346 0.599316 7.67412 0.251127 6.97774 0.251127C6.28903 0.225235 5.66259 0.647534 5.4283 1.29569H4.41856C4.22705 1.29569 4.03554 1.38273 4.03554 1.57424V2.16615H2.7124C1.92832 2.17451 1.28685 2.79305 1.25 3.5763V12.4269C1.25 13.1929 1.94638 13.75 2.7124 13.75H11.2778C12.0439 13.75 12.7402 13.1929 12.7402 12.4269V3.57633C12.7034 2.79305 12.0619 2.17451 11.2778 2.16615ZM4.73189 1.99207H5.68942C5.85656 1.97168 5.99082 1.84452 6.02021 1.67871C6.12331 1.22972 6.51722 0.907418 6.97774 0.895289C7.43399 0.909118 7.82197 1.23241 7.91784 1.67871C7.94906 1.85025 8.09218 1.97904 8.26603 1.99207H9.25838V3.38483H4.73189V1.99207ZM12.0439 12.4269C12.0439 12.8099 11.6608 13.0537 11.2778 13.0537H2.7124C2.32939 13.0537 1.94638 12.8099 1.94638 12.4269V3.57633C1.9819 3.17766 2.31219 2.86986 2.7124 2.86256H4.03551V3.75045C4.05391 3.94552 4.22285 4.09144 4.41852 4.08124H9.55428C9.75355 4.09214 9.9278 3.94822 9.95469 3.75045V2.86253H11.2778C11.678 2.86986 12.0083 3.17763 12.0438 3.5763L12.0439 12.4269Z" fill="#7147E8" stroke="#7147E8" stroke-width="0.2"/>
<path d="M5.66293 9.52502C5.55676 9.4131 5.3805 9.40679 5.2666 9.51088L4.36072 10.3743L3.97856 9.97795C3.87239 9.86603 3.69613 9.85974 3.58223 9.9638C3.47259 10.0787 3.47259 10.2594 3.58223 10.3743L4.16254 10.9688C4.21277 11.025 4.28532 11.0561 4.3607 11.0537C4.43536 11.0526 4.50659 11.0221 4.55885 10.9688L5.66288 9.92135C5.77233 9.82095 5.77964 9.65081 5.67921 9.54139C5.67407 9.53567 5.66862 9.53022 5.66293 9.52502Z" fill="#7147E8" stroke="#7147E8" stroke-width="0.2"/>
<path d="M10.2427 9.99927H7.36768C7.2296 9.99927 7.11768 10.1671 7.11768 10.3742C7.11768 10.5813 7.2296 10.7492 7.36768 10.7492H10.2427C10.3808 10.7492 10.4927 10.5813 10.4927 10.3742C10.4927 10.1671 10.3808 9.99927 10.2427 9.99927Z" fill="#7147E8" stroke="#7147E8" stroke-width="0.2"/>
<path d="M5.66293 6.52575C5.55676 6.41384 5.3805 6.40752 5.2666 6.51161L4.36072 7.37501L3.97856 6.97868C3.87239 6.86676 3.69613 6.86045 3.58223 6.96454C3.47259 7.07941 3.47259 7.26014 3.58223 7.37501L4.16254 7.96949C4.21277 8.02574 4.28532 8.05684 4.3607 8.05443C4.43536 8.05337 4.50659 8.02284 4.55885 7.96949L5.66288 6.92209C5.77233 6.82168 5.77964 6.65154 5.67921 6.54212C5.67407 6.5364 5.66862 6.53096 5.66293 6.52575Z" fill="#7147E8" stroke="#7147E8" stroke-width="0.2"/>
<path d="M10.2427 7H7.36768C7.2296 7 7.11768 7.16788 7.11768 7.37497C7.11768 7.58207 7.2296 7.74995 7.36768 7.74995H10.2427C10.3808 7.74995 10.4927 7.58207 10.4927 7.37497C10.4927 7.16788 10.3808 7 10.2427 7Z" fill="#7147E8" stroke="#7147E8" stroke-width="0.2"/>
</svg>

<svg xmlns="http://www.w3.org/2000/svg" width="14" height="14" fill="none"><path fill="#7147E8" stroke="#7147E8" stroke-width=".2" d="M11.278 2.166H9.955v-.592c0-.191-.21-.278-.4-.278H8.526C8.283.599 7.674.25 6.977.25a1.584 1.584 0 0 0-1.549 1.045h-1.01c-.19 0-.382.087-.382.278v.592H2.712a1.48 1.48 0 0 0-1.462 1.41v8.85c0 .767.696 1.324 1.462 1.324h8.566c.766 0 1.462-.557 1.462-1.323v-8.85a1.48 1.48 0 0 0-1.462-1.41Zm-6.546-.174h.957a.383.383 0 0 0 .331-.313 1.01 1.01 0 0 1 .958-.784.992.992 0 0 1 .94.784c.031.171.174.3.348.313h.992v1.393H4.732V1.992Zm7.312 10.435c0 .383-.383.627-.766.627H2.712c-.383 0-.766-.244-.766-.627v-8.85a.783.783 0 0 1 .766-.714h1.324v.887a.366.366 0 0 0 .383.331h5.135c.2.011.374-.133.4-.33v-.888h1.324c.4.007.73.315.766.713v8.85Z"/><path fill="#7147E8" stroke="#7147E8" stroke-width=".2" d="M5.663 9.525a.283.283 0 0 0-.396-.014l-.906.863-.382-.396a.283.283 0 0 0-.397-.014.297.297 0 0 0 0 .41l.58.595c.05.056.123.087.199.085a.283.283 0 0 0 .198-.085L5.663 9.92a.269.269 0 0 0 0-.396ZM10.243 10H7.368c-.138 0-.25.167-.25.374s.112.375.25.375h2.875c.138 0 .25-.168.25-.375S10.38 10 10.243 10ZM5.663 6.526a.283.283 0 0 0-.396-.014l-.906.863-.382-.396a.283.283 0 0 0-.397-.014.297.297 0 0 0 0 .41l.58.594c.05.057.123.088.199.085a.283.283 0 0 0 .198-.085l1.104-1.047a.269.269 0 0 0 0-.396ZM10.243 7H7.368c-.138 0-.25.168-.25.375s.112.375.25.375h2.875c.138 0 .25-.168.25-.375S10.38 7 10.243 7Z"/></svg>
